X: 13650
T: Follow Me Down
R: reel
M: 4/4
K: Adorian
||ABAG EGGB|AGAB cded|ceAG EFGB|Aage aAAB|
A2 AG EG G2|(3ABA AB cded|ceAG EFGB|Aage aAAd||
egcg ecgc|(3BBB GB dGBd|g2 ec gcea|gede cAA2|
agea gedB|cBcG EFGB|A2 (3AAA ABcd|eage aA A2||
A2 AG EGGB|AEAB cded|cAag ef (3gfe|aged ceBe|
(3ABA AG EGGB|AE AB cded|cAag efge|aged cA Ag||
egdg egdc|BGGA Bcd=f|dee=f eAab|aged eAAe|
a2 ea aged|ceAG EFGB|(3ABA AB cdef|g2 ga gedB||

